X:1
T:The Evening Is Glorious!
T:The Evening Is Glorious!
T:Harlan D. Sorrell, ca.1986
T:H. D. S.
T:PUBLIC DOMAIN
T:PUBLIC DOMAIN
C:Harlan D. Sorrell, ca.1986
Z:H. D. S.
Z:PUBLIC DOMAIN
%%score ( 1 2 ) 3
L:1/8
Q:3/8=45
M:6/8
K:Ab
V:1 treble nm="Treble"
V:2 treble 
V:3 bass nm="Bass"
V:1
 [CE] | [EA]3/2 [EA]/[EA] [DF] [CE](A/B/) | [Ac]3/2 [Ac]/[EB] [CA]2 (A/c/) | %3
w: 1.~The|eve- ning is glo- rious, oh, *|hear the glad song Of *|
w: 2.~Though|we have been scat- tered by *|sects and by creeds, Now *|
w: 3.~The|songs of the cap- tives who *|have re- turned home— O’er *|
w: 4.~The|glo- ry of heav- en now *|streams from a- bove On *|
w: 5.~The|eve- ning is glo- rious, break *|forth in- to song, Let *|
 [Ae]3/2 [Ae]/ [Af] [Ae] [Ac] [EA] | [=Dc]3/2 [DB]/ [DA] [EB]2 [CE] | %5
w: saints all vic- to- rious o’er|sin and the wrong! They’ve|
w: home to Mount Zi- on our|good Shep- herd leads; The|
w: Ba- bel’s dark moun- tains no|lon- ger to roam— Are|
w: God’s ho- ly rem- nant made|per- fect in love; They’re|
w: me- lo- dy car- ry the|mes- sage a- long Of|
 [EA]3/2 [Ec]/ [EA] [DF] [CE] [EA] | [Ac]3/2 [AB]/A [Ae]2 [Af] | [Ae]3/2 [Ac]/[FB] (A/ F/)E[FA] | %8
w: ris- en in tri- umph to|reign in this life, A-|bove sect con- fu- _ sion, all|
w: light was not clear in the|dark, cloud- y day, But|pure eve- ning light * now re-|
w: tell- ing of free- dom in|Zi- on’s fair height; Oh,|glo- ry to Je- _ sus, the|
w: free in the Spir- it, by|Him they are led, And|give their al- le- _ giance to|
w: per- fect sal- va- tion in|Je- sus a- lone, Who|is our sal- va- _ tion and|
 [Ec]3/2 [EA]/ [DB] [CA]2 ||"^Refrain" [Ec] | [Ae]3/2 [Ae]/ [Af] [Ae] [Ac] [EA]/ [EA]/ | %11
w: dark- ness and strife.|The|eve- ning is glo- rious, hal- le-|
w: veals the true way.|||
w: eve- ning is light!|||
w: Je- sus, their Head.|||
w: chief Cor- ner Stone.|||
 [Ac]3/2 [Ac]/ [GB] [EA]2 [Ac] | [Ae]3/2 [Ae]/ [Ae] [Af] [Ae] [EA] | %13
w: lu- jah to God! We’re|sanc- ti- fied whol- ly through|
w: ||
w: ||
w: ||
w: ||
 [=Dc]3/2 [DB]/ [DA] [EB]2 [Ec] | [EA] [EA] [EA] [DF] [CE] [EA] | [Ac]3/2 [AB]/A [Ae]2 [Af] | %16
w: faith in the blood; The|true light now shin- eth, the|dark- ness is past; Our|
w: |||
w: |||
w: |||
w: |||
 [Ae]3/2 [Ac]/[FB] (A/ F/)E[FA] | [Ec]3/2 [EA]/ [DB] [CA]2 |] %18
w: sor- row and sigh- _ ing is|end- ed at last.|
w: ||
w: ||
w: ||
w: ||
V:2
 x | z3 z z E | z3 z2 E | x6 | x6 | x6 | z2 A z3 | z3 E E z | x5 || x | x6 | x6 | x6 | x6 | x6 | %15
 z2 A z3 | z3 E E z | x5 |] %18
V:3
 [A,,E,] | [A,,A,]3/2 [A,,A,]/ [A,,A,] [A,,A,] [A,,A,] [E,C] | %2
 [A,E]3/2 [A,E]/ [E,D] [A,,C]2 [E,A,] | [A,C]3/2 [A,C]/ [A,C] [CE] [A,C] [E,C] | %4
 [F,B,]3/2 [B,,B,]/ [B,,B,] [E,G,]2 [A,,A,] | [A,,A,]3/2 [A,,A,]/ [A,,A,] [A,,A,] [A,,A,] [E,C] | %6
 [A,E]3/2 [E,C]/ [E,C] [A,E]2 [DE] | [CE]3/2 [A,E]/ [F,D] [E,C] [C,A,] [D,A,] | %8
 [E,C]3/2 [E,C]/ [E,B,] [A,,A,]2 || [E,A,] | [A,C]3/2 [A,C]/ [A,C] [CE] [A,C] [C,C]/ [C,C]/ | %11
 [E,E]3/2 [E,E]/ [E,D] [A,C]2 [A,E] | [A,C]3/2 [A,C]/ [A,C] [A,D] [A,C] [A,C] | %13
 [F,B,]3/2 [F,B,]/ [B,,B,] [E,G,]2 [E,A,] | [A,,A,] [A,,A,] [A,,A,] [A,,A,] [A,,A,] [E,C] | %15
 [A,E]3/2 [E,C]/ [E,C] [A,E]2 [DE] | [CE]3/2 [A,E]/ [F,D] [E,C] [C,A,] [D,A,] | %17
 [E,C]3/2 [E,C]/ [E,B,] [A,,A,]2 |] %18

